usr/share/icons/biglinux-icons-material/scalable/apps/plasma-search.svg

<?xml version="1.0" encoding="UTF-8" standalone="no"?>
<svg
   width="24"
   height="24"
   viewBox="0 0 6.349875 6.349875"
   version="1.1"
   id="svg190"
   sodipodi:docname="plasma-search.svg"
   xml:space="preserve"
   inkscape:version="1.2.2 (b0a8486541, 2022-12-01)"
   inkscape:export-filename="plasma-search.png"
   inkscape:export-xdpi="512"
   inkscape:export-ydpi="512"
   xmlns:inkscape="http://www.inkscape.org/namespaces/inkscape"
   xmlns:sodipodi="http://sodipodi.sourceforge.net/DTD/sodipodi-0.dtd"
   xmlns="http://www.w3.org/2000/svg"
   xmlns:svg="http://www.w3.org/2000/svg"><defs
     id="defs194"><rect
       x="5.3268056"
       y="2.0367198"
       width="12.69033"
       height="15.980416"
       id="rect6368" /><linearGradient
       id="paint0_linear_3_286"
       x1="12"
       y1="1"
       x2="12"
       y2="12"
       gradientUnits="userSpaceOnUse"><stop
         stop-color="#EEA5FF"
         id="stop266" /><stop
         offset="1"
         stop-color="#A159B2"
         id="stop268" /></linearGradient><linearGradient
       x1="12"
       y1="1"
       x2="12"
       y2="23"
       gradientUnits="userSpaceOnUse"
       gradientTransform="matrix(0.75,0,0,0.75,-7.98374e-6,-2.49454e-5)"
       spreadMethod="pad"
       id="linearGradient38255-1"><stop
         style="stop-opacity:1;stop-color:#4a74d2"
         offset="0"
         id="stop38251-9" /><stop
         style="stop-opacity:1;stop-color:#375295"
         offset="1"
         id="stop38253-4" /></linearGradient><linearGradient
       id="paint0_linear_18_187"
       x1="12"
       y1="1"
       x2="12"
       y2="23"
       gradientUnits="userSpaceOnUse"
       gradientTransform="matrix(0.26457812,0,0,0.26457812,-2.8164292e-6,9.3778578e-6)"><stop
         stop-color="#33BEF0"
         id="stop43245"
         offset="0"
         style="stop-color:#ff5f5f;stop-opacity:1;" /><stop
         offset="1"
         stop-color="#0A85D9"
         id="stop43247"
         style="stop-color:#e82e34;stop-opacity:1;" /></linearGradient><linearGradient
       x1="12"
       y1="1"
       x2="12"
       y2="23"
       gradientUnits="userSpaceOnUse"
       gradientTransform="matrix(0.75,0,0,0.75,-7.98374e-6,2.65834e-5)"
       spreadMethod="pad"
       id="linearGradient44915"><stop
         style="stop-color:#31d931;stop-opacity:1;"
         offset="0"
         id="stop44911" /><stop
         style="stop-color:#d4f3d4;stop-opacity:1;"
         offset="1"
         id="stop44913" /></linearGradient><linearGradient
       id="paint0_linear_3_286-3"
       x1="12"
       y1="1"
       x2="12"
       y2="12"
       gradientUnits="userSpaceOnUse"><stop
         stop-color="#EEA5FF"
         id="stop266-6" /><stop
         offset="1"
         stop-color="#A159B2"
         id="stop268-7" /></linearGradient><radialGradient
       id="paint0_radial_4_408"
       cx="0"
       cy="0"
       r="1"
       gradientUnits="userSpaceOnUse"
       gradientTransform="matrix(0,5.8207186,-5.8207186,0,3.1749362,0.26458225)"><stop
         stop-color="#D6B1FF"
         id="stop3331"
         offset="0"
         style="stop-color:#cdf2cd;stop-opacity:1;" /><stop
         offset="1"
         stop-color="#A75DFA"
         id="stop3333"
         style="stop-color:#38d23a;stop-opacity:1;" /></radialGradient><radialGradient
       fx="0"
       fy="0"
       cx="0"
       cy="0"
       r="1"
       gradientUnits="userSpaceOnUse"
       gradientTransform="matrix(0,16.5,-16.5,0,8.999996,0.750012)"
       spreadMethod="pad"
       id="radialGradient3666"><stop
         style="stop-opacity:1;stop-color:#cdf2cd"
         offset="0"
         id="stop3662" /><stop
         style="stop-opacity:1;stop-color:#38d23a"
         offset="1"
         id="stop3664" /></radialGradient><radialGradient
       fx="0"
       fy="0"
       cx="0"
       cy="0"
       r="1"
       gradientUnits="userSpaceOnUse"
       gradientTransform="matrix(0,16.5,-16.5,0,8.999996,0.750012)"
       spreadMethod="pad"
       id="radialGradient3666-6"><stop
         style="stop-color:#ffffff;stop-opacity:1;"
         offset="0"
         id="stop3662-7" /><stop
         style="stop-color:#3c8dd4;stop-opacity:1;"
         offset="1"
         id="stop3664-5" /></radialGradient><rect
       x="5.3268056"
       y="2.0367198"
       width="12.69033"
       height="15.980416"
       id="rect6368-6" /><radialGradient
       id="paint0_radial_4_408-2"
       cx="0"
       cy="0"
       r="1"
       gradientUnits="userSpaceOnUse"
       gradientTransform="matrix(0,5.8207186,-5.8207186,0,3.1749362,0.26458225)"><stop
         stop-color="#D6B1FF"
         id="stop3331-7"
         offset="0"
         style="stop-color:#cdf2cd;stop-opacity:1;" /><stop
         offset="1"
         stop-color="#A75DFA"
         id="stop3333-0"
         style="stop-color:#38d23a;stop-opacity:1;" /></radialGradient><radialGradient
       fx="0"
       fy="0"
       cx="0"
       cy="0"
       r="1"
       gradientUnits="userSpaceOnUse"
       gradientTransform="matrix(0,16.5,-16.5,0,8.999996,0.750012)"
       spreadMethod="pad"
       id="radialGradient3666-9"><stop
         style="stop-opacity:1;stop-color:#cdf2cd"
         offset="0"
         id="stop3662-3" /><stop
         style="stop-opacity:1;stop-color:#38d23a"
         offset="1"
         id="stop3664-6" /></radialGradient><radialGradient
       fx="0"
       fy="0"
       cx="0"
       cy="0"
       r="1"
       gradientUnits="userSpaceOnUse"
       gradientTransform="matrix(0,16.5,-16.5,0,8.999996,0.750012)"
       spreadMethod="pad"
       id="radialGradient3666-6-0"><stop
         style="stop-opacity:1;stop-color:#cdf2cd"
         offset="0"
         id="stop3662-7-6" /><stop
         style="stop-opacity:1;stop-color:#38d23a"
         offset="1"
         id="stop3664-5-2" /></radialGradient></defs><sodipodi:namedview
     id="namedview192"
     pagecolor="#ffffff"
     bordercolor="#000000"
     borderopacity="0.25"
     inkscape:showpageshadow="2"
     inkscape:pageopacity="0.0"
     inkscape:pagecheckerboard="0"
     inkscape:deskcolor="#d1d1d1"
     showgrid="false"
     inkscape:zoom="12.765625"
     inkscape:cx="11.828641"
     inkscape:cy="16.959608"
     inkscape:window-width="2560"
     inkscape:window-height="1000"
     inkscape:window-x="1680"
     inkscape:window-y="0"
     inkscape:window-maximized="1"
     inkscape:current-layer="svg190" /><g
     id="g3652"
     transform="matrix(0.35277082,0,0,0.35277082,0.02186344,-0.08061378)"><g
       id="g3654"><g
         id="g3660"><path
           d="m 7.195,0.836 c 0.09,0 0.176,-0.012 0.258,-0.035 1.078,-0.071 2.156,-0.067 3.231,0.008 0.976,0.078 1.921,0.289 2.836,0.636 1.519,0.625 2.558,1.711 3.121,3.254 0.316,0.93 0.507,1.887 0.566,2.867 0.078,1.235 0.051,2.465 -0.086,3.696 -0.105,0.863 -0.328,1.691 -0.672,2.488 -0.637,1.383 -1.672,2.336 -3.101,2.859 C 12.191,17 11,17.207 9.773,17.227 8.398,17.301 7.035,17.195 5.684,16.918 3.203,16.367 1.668,14.852 1.09,12.375 0.844,11.262 0.73,10.133 0.754,8.992 0.727,7.781 0.855,6.582 1.141,5.402 1.75,3.09 3.219,1.656 5.547,1.102 6.09,0.969 6.641,0.879 7.195,0.836 Z"
           style="fill:url(#radialGradient3666-6);fill-rule:evenodd;stroke:none;stroke-width:0.99975004;stroke-dasharray:none"
           id="path3668" /></g></g></g><path
     id="path332"
     style="fill:#e4eef6;fill-opacity:1;stroke-width:0.373298"
     d="m 4.1232596,2.9685303 a 1.2475263,1.2420008 11.425286 0 0 -1.433175,1.0148312 1.2475263,1.2420008 11.425286 0 0 1.019527,1.430445 1.2479008,1.2427454 11.556734 0 0 0.7334639,-0.097534 L 4.7669864,5.7715948 C 4.9123539,5.7166539 5.0471772,5.6451106 5.1716025,5.5577452 L 4.8103943,5.0502633 C 4.9798504,4.8760786 5.1062005,4.6555222 5.1493226,4.4006095 5.263088,3.7280671 4.7985537,3.0829598 4.1232596,2.9685303 Z M 4.0480462,3.4131257 A 0.78779351,0.78453888 11.556651 0 1 4.6964635,4.3233459 0.78816758,0.78491141 11.556642 0 1 3.784815,4.9692103 C 3.3507293,4.8956533 3.0627339,4.4913715 3.1358052,4.0594162 3.2090618,3.6263592 3.6139605,3.3395687 4.0480512,3.4131259 Z" /><path
     id="path334"
     style="opacity:0.727273;mix-blend-mode:normal;fill:#f8f9f9;fill-opacity:1;stroke-width:0.637963;paint-order:stroke fill markers"
     d="M 4.3479292,0.28673322 4.3201411,1.3336439 C 4.3056054,1.8812701 4.7567127,2.3342881 5.3311843,2.349698 L 6.0781444,2.369735 C 6.0511626,2.1211151 6.000719,1.8764669 5.9265127,1.6360496 5.7424926,1.0837163 5.3861154,0.68857138 4.8563282,0.45263417 4.6900617,0.38409302 4.5206693,0.32945041 4.3479292,0.28673322 Z" /><g
     id="g1420"
     transform="matrix(0.35277082,0,0,0.35277082,0.02186344,-0.08061378)"><g
       id="g1418"><g
         id="g1416" /></g></g><g
     id="g3579"
     transform="matrix(0.35277082,0,0,0.35277082,0.02186344,-0.08061378)"><g
       id="g3577"><g
         id="g3575" /></g></g></svg>

<svg xmlns="http://www.w3.org/2000/svg" xml:space="preserve" width="24" height="24" viewBox="0 0 6.35 6.35"><defs><radialGradient id="a" cx="0" cy="0" r="1" fx="0" fy="0" gradientTransform="matrix(0 16.5 -16.5 0 9 .75)" gradientUnits="userSpaceOnUse" spreadMethod="pad"><stop offset="0" style="stop-color:#fff;stop-opacity:1"/><stop offset="1" style="stop-color:#3c8dd4;stop-opacity:1"/></radialGradient></defs><path d="M7.195.836c.09 0 .176-.012.258-.035a23.86 23.86 0 0 1 3.231.008 10.26 10.26 0 0 1 2.836.636c1.519.625 2.558 1.711 3.121 3.254.316.93.507 1.887.566 2.867a21.227 21.227 0 0 1-.086 3.696 8.976 8.976 0 0 1-.672 2.488c-.637 1.383-1.672 2.336-3.101 2.859a11.693 11.693 0 0 1-3.575.618 15.998 15.998 0 0 1-4.089-.309c-2.481-.551-4.016-2.066-4.594-4.543a14.244 14.244 0 0 1-.336-3.383c-.027-1.211.101-2.41.387-3.59.609-2.312 2.078-3.746 4.406-4.3A10.27 10.27 0 0 1 7.195.836Z" style="fill:url(#a);fill-rule:evenodd;stroke:none;stroke-width:.99975004;stroke-dasharray:none" transform="translate(.022 -.08) scale(.35277)"/><path d="M4.123 2.969A1.248 1.242 11.425 0 0 2.69 3.983a1.248 1.242 11.425 0 0 1.02 1.43 1.248 1.243 11.557 0 0 .733-.097l.324.456c.145-.055.28-.127.405-.214L4.81 5.05c.17-.174.296-.394.34-.65A1.252 1.252 0 0 0 4.122 2.97Zm-.075.444a.788.785 11.557 0 1 .648.91.788.785 11.557 0 1-.911.646.787.787 0 0 1-.65-.91.786.786 0 0 1 .913-.646Z" style="fill:#e4eef6;fill-opacity:1;stroke-width:.373298"/><path d="M4.348.287 4.32 1.334c-.014.547.437 1 1.011 1.016l.747.02a3.914 3.914 0 0 0-.151-.734A1.898 1.898 0 0 0 4.857.453a3.594 3.594 0 0 0-.51-.166Z" style="opacity:.727273;mix-blend-mode:normal;fill:#f8f9f9;fill-opacity:1;stroke-width:.637963;paint-order:stroke fill markers"/></svg>
